packages/core/src/svgs/tokens/mono/MNTC.svg

<svg width="24" height="24" viewBox="0 0 24 24" fill="none" xmlns="http://www.w3.org/2000/svg">
<path d="M4.06185 15.0946V14.9626C4.2268 14.9544 4.30515 14.942 4.30515 14.7359V12.9007L3.56701 15.0946H3.35257C3.1134 14.3523 2.8701 13.6101 2.6103 12.8677V14.3565C2.6103 14.6451 2.66392 14.9544 3.02267 14.9544V15.0946H2V14.9544C2.37113 14.9338 2.41237 14.707 2.41237 14.377V13.1564C2.41237 12.9007 2.24742 12.777 2 12.7606V12.6204H3.12164L3.60412 14.2699L4.09484 12.9255C4.12782 12.843 4.15257 12.7441 4.16906 12.6204H5.21648V12.7523C5.05979 12.7688 4.88659 12.7811 4.88659 12.9709V14.7193C4.88659 14.9008 5.06804 14.9214 5.21648 14.9379V15.0946H4.06185ZM7.20412 15.0121C7.08041 15.0698 6.96906 15.0946 6.86597 15.0946C6.65154 15.0946 6.58968 15.0244 6.55256 14.8719H6.54432C6.40823 15.0244 6.17319 15.0946 5.967 15.0946C5.73607 15.0946 5.55463 14.9296 5.55463 14.6987C5.55463 14.2533 6.20205 14.1791 6.53607 14.0595V13.9111C6.53607 13.6884 6.39587 13.5812 6.25566 13.5812C6.19087 13.5781 6.12695 13.597 6.07422 13.6348C6.07422 13.7049 6.1237 13.775 6.1237 13.8492C6.1237 13.9729 6.04123 14.0431 5.86804 14.0431C5.70309 14.0431 5.61236 13.9646 5.61236 13.8162C5.61236 13.5399 6.06184 13.4451 6.27216 13.4451C6.51958 13.4451 6.70102 13.4863 6.79999 13.5688C6.89484 13.6595 6.94844 13.7915 6.94844 13.9646V14.6987C6.94844 14.876 7.03917 14.8884 7.18761 14.8884L7.20412 15.0121ZM6.53607 14.208C6.32989 14.278 6.0536 14.3812 6.0536 14.6244C6.0536 14.777 6.11133 14.8554 6.23092 14.8554C6.31339 14.8554 6.47834 14.8142 6.53607 14.7359V14.208ZM8.80411 15.0946V14.9708C8.92783 14.9708 9.0103 14.9296 9.0103 14.8018V14.0431C9.0103 13.8203 8.95256 13.7049 8.80411 13.7049C8.59793 13.7049 8.26803 13.7709 8.18556 13.9111V14.777C8.18556 14.909 8.26803 14.9502 8.39174 14.9708V15.0946H7.53813V14.9708C7.66184 14.9626 7.77319 14.9379 7.77319 14.7936V13.8533C7.77319 13.7214 7.69071 13.643 7.51339 13.6265V13.5111L8.16081 13.4451L8.18556 13.4698V13.7296H8.1938C8.35051 13.5647 8.6969 13.4451 9.01854 13.4451C9.3402 13.4451 9.42267 13.6719 9.42267 13.9812V14.7853C9.42267 14.9214 9.50515 14.9585 9.62886 14.9708V15.0946H8.80411ZM21.1752 15.0946V14.9708C21.2989 14.9708 21.3814 14.9296 21.3814 14.8018V14.0431C21.3814 13.8203 21.3237 13.7049 21.1752 13.7049C20.969 13.7049 20.6392 13.7709 20.5567 13.9111V14.777C20.5567 14.909 20.6392 14.9502 20.7629 14.9708V15.0946H19.9092V14.9708C20.033 14.9626 20.1443 14.9379 20.1443 14.7936V13.8533C20.1443 13.7214 20.0618 13.643 19.8845 13.6265V13.5111L20.532 13.4451L20.5567 13.4698V13.7296H20.5649C20.7216 13.5647 21.068 13.4451 21.3897 13.4451C21.7113 13.4451 21.7938 13.6719 21.7938 13.9812V14.7853C21.7938 14.9214 21.8763 14.9585 22 14.9708V15.0946H21.1752ZM11.4845 14.6657C11.4082 14.7996 11.297 14.9104 11.1626 14.9859C11.0282 15.0615 10.8757 15.0991 10.7216 15.0946C10.4412 15.0946 10.2186 15.0121 10.0701 14.8719C9.99052 14.7921 9.92855 14.6967 9.88807 14.5915C9.8476 14.4864 9.82953 14.3741 9.83504 14.2616C9.83608 14.1519 9.85902 14.0435 9.90249 13.9427C9.94597 13.842 10.0091 13.7508 10.0882 13.6748C10.1674 13.5988 10.2608 13.5394 10.3632 13.4999C10.4657 13.4605 10.5749 13.4418 10.6845 13.4451C11.0763 13.4451 11.4845 13.6843 11.4845 14.1173V14.2699H10.2474C10.2474 14.707 10.5649 14.8802 10.9031 14.8802C11.0845 14.8802 11.233 14.7853 11.3649 14.5915L11.4845 14.6657ZM11.0721 14.0719C11.0721 13.742 10.8165 13.5647 10.6598 13.5647C10.4866 13.5647 10.2557 13.7296 10.2474 14.0719H11.0721ZM16.433 14.4389C16.2021 14.876 15.8268 15.0946 15.3031 15.0946C14.5856 15.0946 13.9587 14.6327 13.9587 13.878C13.9587 13.1069 14.6226 12.6204 15.3567 12.6204C15.6041 12.6204 15.835 12.6698 16.0453 12.773L16.1567 12.6781H16.3134L16.3299 13.5358H16.1773C16.0825 13.276 15.9712 13.0822 15.8516 12.9585C15.7278 12.8307 15.567 12.773 15.3856 12.773C14.9443 12.773 14.5773 13.1317 14.5773 13.8203C14.5773 14.3276 14.8824 14.8513 15.468 14.8513C15.7897 14.8513 16.0659 14.6863 16.2845 14.3482L16.433 14.4389ZM12.8536 14.9832C12.6763 15.0534 12.5196 15.0946 12.3711 15.0946C12.0618 15.0946 11.8969 14.942 11.8969 14.6327V13.6513H11.6164V13.4451H11.8969V13.0328H12.3092V13.4451H12.7216V13.6513H12.3092V14.509C12.3092 14.674 12.4082 14.8802 12.6186 14.8802C12.701 14.8802 12.7752 14.8719 12.8371 14.8636L12.8536 14.9874V14.9832Z" fill="white"/>
<path d="M17.4516 10.5586L18.0166 11.0617L18.7259 10.7854L18.4208 11.4741L18.9074 12.0555L18.1527 11.9771L17.7403 12.6205L17.5837 11.8823L16.8455 11.6968L17.5052 11.3132L17.4516 10.5586Z" fill="white"/>
<path d="M15.6252 8.90918L16.087 9.51536L16.8457 9.3834L16.4046 9.98958L16.7633 10.6535L16.0333 10.4267L15.4849 10.971L15.4767 10.2288L14.7798 9.89062L15.5138 9.65557L15.621 8.90918H15.6252Z" fill="white"/>
<path d="M13.4518 8.90916L13.8146 9.19782L14.2188 8.99575L14.0621 9.43286L14.3714 9.76276L13.9178 9.74627L13.6992 10.1463L13.5796 9.70503L13.1343 9.61019L13.5095 9.36276L13.4518 8.90503V8.90916Z" fill="white"/>
<path d="M12.1034 9.32153L12.3508 9.51122L12.6189 9.38751L12.5116 9.66792L12.7219 9.88648L12.4168 9.87823L12.2725 10.1463L12.19 9.84937L11.8972 9.79163L12.1446 9.62668L12.1034 9.32153Z" fill="white"/>
<path d="M17.6535 15.0946C17.5457 15.0969 17.4385 15.0771 17.3386 15.0365C17.2387 14.996 17.1481 14.9354 17.0724 14.8586C16.9967 14.7817 16.9375 14.6902 16.8985 14.5897C16.8594 14.4891 16.8413 14.3818 16.8453 14.274C16.8453 13.7956 17.1835 13.4451 17.6701 13.4451C18.1484 13.4451 18.4948 13.775 18.4948 14.2574C18.4948 14.7482 18.1401 15.0946 17.6535 15.0946ZM17.6659 13.5688C17.4639 13.5688 17.2577 13.7915 17.2577 14.241C17.2577 14.4472 17.3567 14.9585 17.6701 14.9585C17.8763 14.9585 18.0824 14.7234 18.0824 14.2492C18.0742 13.7997 17.868 13.5729 17.6701 13.5729L17.6659 13.5688ZM19.0721 13.21C18.9236 13.21 18.8247 13.0575 18.8247 12.9213C18.8247 12.7853 18.9154 12.6204 19.0638 12.6204C19.2205 12.6204 19.3195 12.777 19.3195 12.9173C19.3195 13.0575 19.2247 13.206 19.0721 13.206V13.21ZM18.7092 14.9668C18.7917 14.9668 18.8453 14.942 18.87 14.9172C18.8947 14.8842 18.9072 14.843 18.9072 14.7936V13.8245C18.9072 13.7007 18.8329 13.6224 18.6845 13.5977V13.4863L19.303 13.4451L19.3195 13.4698V14.7812C19.3195 14.8348 19.3319 14.876 19.3607 14.909C19.3813 14.942 19.435 14.9585 19.5092 14.975V15.0946H18.7092V14.9668Z" fill="white"/>
</svg>

<svg xmlns="http://www.w3.org/2000/svg" width="24" height="24" fill="none" viewBox="0 0 24 24">
    <path fill="#fff" d="M4.062 15.095v-.132c.165-.009.243-.021.243-.227V12.9l-.738 2.194h-.214a94 94 0 0 0-.743-2.227v1.489c0 .288.054.597.413.597v.14H2v-.14c.371-.02.412-.247.412-.577v-1.22c0-.256-.165-.38-.412-.396v-.14h1.122l.482 1.649.49-1.344c.034-.083.059-.182.075-.306h1.047v.132c-.156.017-.33.03-.33.219v1.748c0 .182.182.202.33.219v.157zm3.142-.083a.8.8 0 0 1-.338.083c-.214 0-.276-.07-.313-.223h-.009c-.136.152-.37.223-.577.223-.23 0-.412-.165-.412-.396 0-.446.647-.52.981-.64v-.148c0-.223-.14-.33-.28-.33a.3.3 0 0 0-.182.054c0 .07.05.14.05.214 0 .124-.083.194-.256.194-.165 0-.256-.078-.256-.227 0-.276.45-.37.66-.37.248 0 .429.04.528.123.095.09.148.222.148.396v.734c0 .177.091.19.24.19zm-.668-.804c-.206.07-.482.173-.482.416q-.001.23.177.231c.082 0 .247-.04.305-.12zm2.268.887v-.124c.124 0 .206-.041.206-.17v-.758c0-.223-.057-.338-.206-.338-.206 0-.536.066-.618.206v.866c0 .132.082.173.206.194v.124h-.854v-.124c.124-.008.235-.033.235-.177v-.94c0-.133-.082-.211-.26-.227v-.116l.648-.066.025.025v.26h.008c.157-.165.503-.285.825-.285s.404.227.404.536v.804c0 .136.082.174.206.186v.124zm12.371 0v-.124c.124 0 .206-.041.206-.17v-.758c0-.223-.057-.338-.206-.338-.206 0-.536.066-.618.206v.866c0 .132.082.173.206.194v.124h-.854v-.124c.124-.008.235-.033.235-.177v-.94c0-.133-.082-.211-.26-.227v-.116l.648-.066.025.025v.26h.008c.157-.165.503-.285.825-.285s.404.227.404.536v.804c0 .136.082.174.206.186v.124zm-9.69-.43a.85.85 0 0 1-.763.43c-.28 0-.503-.083-.652-.223a.8.8 0 0 1-.235-.61.825.825 0 0 1 .85-.817c.391 0 .8.24.8.672v.153h-1.238c0 .437.318.61.656.61.181 0 .33-.095.462-.289zm-.413-.593c0-.33-.255-.507-.412-.507-.173 0-.404.165-.413.507zm5.361.367q-.345.656-1.13.656c-.717 0-1.344-.462-1.344-1.217 0-.771.664-1.258 1.398-1.258q.372 0 .688.153l.112-.095h.156l.017.858h-.153q-.145-.391-.325-.577a.63.63 0 0 0-.466-.186c-.442 0-.809.359-.809 1.047 0 .508.305 1.031.891 1.031.322 0 .598-.165.817-.503zm-3.58.544c-.177.07-.333.112-.482.112-.31 0-.474-.153-.474-.462v-.982h-.28v-.206h.28v-.412h.412v.412h.413v.206h-.413v.858c0 .165.1.371.31.371q.124-.002.218-.016l.017.123zm4.599-4.424.565.503.709-.277-.305.69.486.58-.754-.078-.413.643-.156-.738-.738-.185.66-.384zM15.625 8.91l.462.605.759-.132-.441.607.358.663-.73-.226-.548.544-.008-.742-.697-.338.734-.235.107-.747zm-2.173 0 .363.288.404-.202-.157.437.31.33-.454-.017-.219.4-.12-.441-.445-.095.375-.247-.057-.458zm-1.349.412.248.19.268-.124-.107.28.21.218-.305-.008-.144.268-.083-.297-.293-.057.248-.165zm5.551 5.773a.79.79 0 0 1-.809-.821c0-.478.338-.829.825-.829.478 0 .825.33.825.812 0 .491-.355.838-.841.838m.012-1.526c-.202 0-.408.222-.408.672 0 .206.099.718.412.718.206 0 .412-.236.412-.71-.008-.45-.214-.676-.412-.676zm1.406-.359c-.148 0-.247-.153-.247-.289s.09-.3.239-.3c.157 0 .256.156.256.296s-.095.289-.248.289zm-.363 1.757c.083 0 .136-.025.161-.05a.2.2 0 0 0 .037-.123v-.97c0-.123-.074-.202-.223-.226v-.112l.619-.04.017.024v1.311q-.001.08.04.128c.021.033.075.05.15.066v.12h-.8z"/>
</svg>
